assets/checkmark-large.svg

<svg fill="none" height="106" viewBox="0 0 106 106" width="106" xmlns="http://www.w3.org/2000/svg"><g fill="#e9e8eb"><path d="m53 0c29.2711 0 53 23.7289 53 53s-23.7289 53-53 53-53-23.7289-53-53 23.7289-53 53-53zm0 6c-25.9574 0-47 21.0426-47 47s21.0426 47 47 47 47-21.0426 47-47-21.0426-47-47-47z"/><path d="m73.3521 38.3292c-.275-.2773-.6022-.4974-.9627-.6476s-.7472-.2275-1.1377-.2275-.7772.0773-1.1377.2275-.6877.3703-.9627.6476l-22.0396 22.0691-9.2596-9.2891c-.2855-.2759-.6226-.4927-.992-.6383-.3693-.1456-.7637-.217-1.1607-.2101-.3969.0069-.7887.0919-1.1528.2501-.3641.1583-.6934.3867-.9693.6722-.2758.2856-.4927.6226-.6383.992-.1455.3694-.2169.7638-.21 1.1607.0068.397.0918.7887.2501 1.1528.1582.3641.3866.6935.6722.9693l11.36 11.36c.275.2773.6022.4974.9627.6476s.7472.2275 1.1377.2275.7772-.0773 1.1377-.2275.6877-.3703.9627-.6476l24.14-24.14c.3003-.277.54-.6132.7039-.9875.1639-.3742.2485-.7783.2485-1.1869 0-.4085-.0846-.8126-.2485-1.1869-.1639-.3742-.4036-.7104-.7039-.9874z"/></g></svg>

<svg width="106" height="106" viewBox="0 0 106 106" fill="none" xmlns="http://www.w3.org/2000/svg">
<path d="M53 0C82.2711 0 106 23.7289 106 53C106 82.2711 82.2711 106 53 106C23.7289 106 0 82.2711 0 53C0 23.7289 23.7289 0 53 0ZM53 6C27.0426 6 6 27.0426 6 53C6 78.9574 27.0426 100 53 100C78.9574 100 100 78.9574 100 53C100 27.0426 78.9574 6 53 6Z" fill="#E9E8EB"/>
<path d="M73.3521 38.3292C73.0771 38.0519 72.7499 37.8318 72.3894 37.6816C72.0289 37.5314 71.6422 37.4541 71.2517 37.4541C70.8612 37.4541 70.4745 37.5314 70.114 37.6816C69.7535 37.8318 69.4263 38.0519 69.1513 38.3292L47.1117 60.3983L37.8521 51.1092C37.5666 50.8333 37.2295 50.6165 36.8601 50.4709C36.4908 50.3253 36.0964 50.2539 35.6994 50.2608C35.3025 50.2677 34.9107 50.3527 34.5466 50.5109C34.1825 50.6692 33.8532 50.8976 33.5773 51.1831C33.3015 51.4687 33.0846 51.8057 32.939 52.1751C32.7935 52.5445 32.7221 52.9389 32.729 53.3358C32.7358 53.7328 32.8208 54.1245 32.9791 54.4886C33.1373 54.8527 33.3657 55.1821 33.6513 55.4579L45.0113 66.8179C45.2863 67.0952 45.6135 67.3153 45.974 67.4655C46.3345 67.6157 46.7212 67.693 47.1117 67.693C47.5022 67.693 47.8889 67.6157 48.2494 67.4655C48.6099 67.3153 48.9371 67.0952 49.2121 66.8179L73.3521 42.6779C73.6524 42.4009 73.8921 42.0647 74.056 41.6904C74.2199 41.3162 74.3045 40.9121 74.3045 40.5035C74.3045 40.095 74.2199 39.6909 74.056 39.3166C73.8921 38.9424 73.6524 38.6062 73.3521 38.3292V38.3292Z" fill="#E9E8EB"/>
</svg>
